src/img/icons/logo.svg

<svg width="190" height="24" viewBox="0 0 190 24" fill="none" xmlns="http://www.w3.org/2000/svg">
<path d="M0.75 19L8.45 1.375H11.3L19 19H15.75L13.975 14.775H5.7L3.9 19H0.75ZM6.825 12.05H12.85L9.825 5.05L6.825 12.05ZM21.651 19V5.8H24.676V8.775C25.6093 6.525 27.1676 5.45 29.351 5.55V8.75H29.176C27.8093 8.75 26.7176 9.2 25.901 10.1C25.0843 10.9833 24.676 12.275 24.676 13.975V19H21.651ZM36.4031 19.225C33.8698 19.225 32.6031 17.9333 32.6031 15.35V8.4H30.9281V5.8H32.6031V2.175H35.6281V5.8H39.1781V8.4H35.6281V14.875C35.6281 15.975 36.1698 16.525 37.2531 16.525C37.9031 16.525 38.5281 16.375 39.1281 16.075V18.55C38.3281 19 37.4198 19.225 36.4031 19.225Z" fill="#1B1B1B"/>
<path d="M55.325 19.225C52.7917 19.225 51.525 17.9333 51.525 15.35V8.4H49.85V5.8H51.525V2.175H54.55V5.8H58.1V8.4H54.55V14.875C54.55 15.975 55.0917 16.525 56.175 16.525C56.825 16.525 57.45 16.375 58.05 16.075V18.55C57.25 19 56.3417 19.225 55.325 19.225ZM61.2039 3.775V0.899999H64.4539V3.775H61.2039ZM61.3289 19V5.8H64.3539V19H61.3289ZM68.3072 19V5.8H71.3322V7.8C72.4322 6.28333 73.7739 5.525 75.3572 5.525C77.1906 5.525 78.4989 6.3 79.2822 7.85C80.4656 6.3 81.9572 5.525 83.7572 5.525C85.2072 5.525 86.3406 5.96667 87.1572 6.85C87.9739 7.73333 88.3822 8.975 88.3822 10.575V19H85.3572V11.5C85.3572 10.45 85.1239 9.65 84.6572 9.1C84.1906 8.55 83.5322 8.275 82.6822 8.275C81.8322 8.275 81.1489 8.56667 80.6322 9.15C80.1156 9.71667 79.8572 10.5167 79.8572 11.55V19H76.8322V11.475C76.8322 10.4583 76.5989 9.675 76.1322 9.125C75.6656 8.55833 75.0072 8.275 74.1572 8.275C73.3072 8.275 72.6239 8.575 72.1072 9.175C71.5906 9.75833 71.3322 10.5583 71.3322 11.575V19H68.3072ZM98.1121 19.3C96.1788 19.3 94.5621 18.6583 93.2621 17.375C91.9788 16.0917 91.3371 14.4333 91.3371 12.4C91.3371 10.4833 91.9454 8.85833 93.1621 7.525C94.3788 6.19167 95.9204 5.525 97.7871 5.525C99.7871 5.525 101.337 6.20833 102.437 7.575C103.554 8.925 104.112 10.6083 104.112 12.625C104.112 12.9917 104.095 13.275 104.062 13.475H94.3621C94.5288 14.525 94.9538 15.35 95.6371 15.95C96.3204 16.5333 97.1621 16.825 98.1621 16.825C99.4621 16.825 100.654 16.3 101.737 15.25L103.512 16.825C102.145 18.475 100.345 19.3 98.1121 19.3ZM94.3371 11.475H101.112C101.012 10.4583 100.67 9.625 100.087 8.975C99.5038 8.325 98.7288 8 97.7621 8C96.8454 8 96.0788 8.325 95.4621 8.975C94.8454 9.60833 94.4704 10.4417 94.3371 11.475Z" fill="#1B1B1B"/>
<path d="M129 12.4163V11.5837C125.16 11.4567 122.067 8.37347 121.926 4.53528C121.926 4.52117 121.926 4.51411 121.926 4.5H121.074C121.074 4.51411 121.074 4.52117 121.074 4.53528C120.926 8.36642 117.854 11.4426 114.035 11.5837C114.021 11.5837 114.014 11.5837 114 11.5837V12.4163C114.014 12.4163 114.021 12.4163 114.035 12.4163C117.861 12.5574 120.933 15.6406 121.074 19.4647C121.074 19.4788 121.074 19.4859 121.074 19.5H121.926C121.926 19.4859 121.926 19.4788 121.926 19.4647C122.067 15.6265 125.16 12.5433 129 12.4163Z" fill="#5D5FEF"/>
<path d="M142.075 19.1L137.8 5.8H140.9L143.55 14.85L146.475 5.75H149.05L152 14.85L154.7 5.8H157.725L153.4 19.1H150.7L147.75 10.075L144.775 19.1H142.075ZM165.848 19.3C163.915 19.3 162.298 18.6583 160.998 17.375C159.715 16.0917 159.073 14.4333 159.073 12.4C159.073 10.4833 159.682 8.85833 160.898 7.525C162.115 6.19167 163.657 5.525 165.523 5.525C167.523 5.525 169.073 6.20833 170.173 7.575C171.29 8.925 171.848 10.6083 171.848 12.625C171.848 12.9917 171.832 13.275 171.798 13.475H162.098C162.265 14.525 162.69 15.35 163.373 15.95C164.057 16.5333 164.898 16.825 165.898 16.825C167.198 16.825 168.39 16.3 169.473 15.25L171.248 16.825C169.882 18.475 168.082 19.3 165.848 19.3ZM162.073 11.475H168.848C168.748 10.4583 168.407 9.625 167.823 8.975C167.24 8.325 166.465 8 165.498 8C164.582 8 163.815 8.325 163.198 8.975C162.582 9.60833 162.207 10.4417 162.073 11.475ZM182.386 19.275C180.57 19.275 179.078 18.5 177.911 16.95V19H174.886V0.75H177.911V8C179.078 6.35 180.57 5.525 182.386 5.525C184.053 5.525 185.495 6.15 186.711 7.4C187.928 8.63333 188.536 10.3083 188.536 12.425C188.536 14.5083 187.928 16.175 186.711 17.425C185.495 18.6583 184.053 19.275 182.386 19.275ZM181.686 16.65C182.753 16.65 183.645 16.2583 184.361 15.475C185.095 14.6917 185.461 13.6583 185.461 12.375C185.461 11.125 185.095 10.1083 184.361 9.325C183.628 8.54167 182.736 8.15 181.686 8.15C180.636 8.15 179.728 8.55 178.961 9.35C178.211 10.15 177.836 11.175 177.836 12.425C177.836 13.6583 178.211 14.675 178.961 15.475C179.728 16.2583 180.636 16.65 181.686 16.65Z" fill="#1B1B1B"/>
</svg>

<svg xmlns="http://www.w3.org/2000/svg" fill="none" viewBox="0 0 190 24"><path fill="#1B1B1B" d="M.75 19l7.7-17.625h2.85L19 19h-3.25l-1.775-4.225H5.7L3.9 19H.75zm6.075-6.95h6.025l-3.025-7-3 7zM21.651 19V5.8h3.025v2.975c.933-2.25 2.492-3.325 4.675-3.225v3.2h-.175c-1.367 0-2.458.45-3.275 1.35-.817.883-1.225 2.175-1.225 3.875V19h-3.025zm14.752.225c-2.533 0-3.8-1.292-3.8-3.875V8.4h-1.675V5.8h1.675V2.175h3.025V5.8h3.55v2.6h-3.55v6.475c0 1.1.542 1.65 1.625 1.65.65 0 1.275-.15 1.875-.45v2.475c-.8.45-1.708.675-2.725.675zM55.325 19.225c-2.533 0-3.8-1.292-3.8-3.875V8.4H49.85V5.8h1.675V2.175h3.025V5.8h3.55v2.6h-3.55v6.475c0 1.1.542 1.65 1.625 1.65.65 0 1.275-.15 1.875-.45v2.475c-.8.45-1.708.675-2.725.675zm5.879-15.45V.9h3.25v2.875h-3.25zM61.329 19V5.8h3.025V19h-3.025zm6.978 0V5.8h3.025v2c1.1-1.517 2.442-2.275 4.025-2.275 1.834 0 3.142.775 3.925 2.325 1.184-1.55 2.675-2.325 4.475-2.325 1.45 0 2.584.442 3.4 1.325.817.883 1.225 2.125 1.225 3.725V19h-3.025v-7.5c0-1.05-.233-1.85-.7-2.4-.466-.55-1.125-.825-1.975-.825-.85 0-1.533.292-2.05.875-.516.567-.775 1.367-.775 2.4V19h-3.025v-7.525c0-1.017-.233-1.8-.7-2.35-.466-.567-1.125-.85-1.975-.85-.85 0-1.533.3-2.05.9-.516.583-.775 1.383-.775 2.4V19h-3.025zm29.805.3c-1.933 0-3.55-.642-4.85-1.925-1.283-1.283-1.925-2.942-1.925-4.975 0-1.917.608-3.542 1.825-4.875 1.217-1.333 2.758-2 4.625-2 2 0 3.55.683 4.65 2.05 1.117 1.35 1.675 3.033 1.675 5.05 0 .367-.017.65-.05.85h-9.7c.167 1.05.592 1.875 1.275 2.475.683.583 1.525.875 2.525.875 1.3 0 2.492-.525 3.575-1.575l1.775 1.575c-1.367 1.65-3.167 2.475-5.4 2.475zm-3.775-7.825h6.775c-.1-1.017-.442-1.85-1.025-2.5-.583-.65-1.358-.975-2.325-.975-.917 0-1.683.325-2.3.975-.617.633-.992 1.467-1.125 2.5z"/><path fill="#5D5FEF" d="M129 12.416v-.832a7.326 7.326 0 0 1-7.074-7.049V4.5h-.852v.035c-.148 3.831-3.22 6.908-7.039 7.049H114v.832h.035c3.826.141 6.898 3.225 7.039 7.049v.035h.852v-.035A7.326 7.326 0 0 1 129 12.416z"/><path fill="#1B1B1B" d="M142.075 19.1L137.8 5.8h3.1l2.65 9.05 2.925-9.1h2.575l2.95 9.1 2.7-9.05h3.025L153.4 19.1h-2.7l-2.95-9.025-2.975 9.025h-2.7zm23.773.2c-1.933 0-3.55-.642-4.85-1.925-1.283-1.283-1.925-2.942-1.925-4.975 0-1.917.609-3.542 1.825-4.875 1.217-1.333 2.759-2 4.625-2 2 0 3.55.683 4.65 2.05 1.117 1.35 1.675 3.033 1.675 5.05 0 .367-.016.65-.05.85h-9.7c.167 1.05.592 1.875 1.275 2.475.684.583 1.525.875 2.525.875 1.3 0 2.492-.525 3.575-1.575l1.775 1.575c-1.366 1.65-3.166 2.475-5.4 2.475zm-3.775-7.825h6.775c-.1-1.017-.441-1.85-1.025-2.5-.583-.65-1.358-.975-2.325-.975-.916 0-1.683.325-2.3.975-.616.633-.991 1.467-1.125 2.5zm20.313 7.8c-1.816 0-3.308-.775-4.475-2.325V19h-3.025V.75h3.025V8c1.167-1.65 2.659-2.475 4.475-2.475 1.667 0 3.109.625 4.325 1.875 1.217 1.233 1.825 2.908 1.825 5.025 0 2.083-.608 3.75-1.825 5-1.216 1.233-2.658 1.85-4.325 1.85zm-.7-2.625c1.067 0 1.959-.392 2.675-1.175.734-.783 1.1-1.817 1.1-3.1 0-1.25-.366-2.267-1.1-3.05-.733-.783-1.625-1.175-2.675-1.175-1.05 0-1.958.4-2.725 1.2-.75.8-1.125 1.825-1.125 3.075 0 1.233.375 2.25 1.125 3.05.767.783 1.675 1.175 2.725 1.175z"/></svg>
